svg/tally_mark_5.svg

<svg xmlns="http://www.w3.org/2000/svg" viewBox="0 0 24 24"><path d="M19 10.73V19h-2v-7.64L15 12v7h-2v-6.38l-2 .64V19H9v-5.11l-2 .61V19H5v-3.85l-2.43.77L2 14l3-.95V5h2v7.42l2-.63V5h2v6.16l2-.63V5h2v4.9l2-.64V5h2v3.63L21 8l.57 1.92z"/></svg>

<svg xmlns="http://www.w3.org/2000/svg" id="mdi-tally-mark-5" viewBox="0 0 24 24"><path d="M19 10.73V19H17V11.36L15 12V19H13V12.62L11 13.26V19H9V13.89L7 14.5V19H5V15.15L2.57 15.92L2 14L5 13.05V5H7V12.42L9 11.79V5H11V11.16L13 10.53V5H15V9.9L17 9.26V5H19V8.63L21 8L21.57 9.92L19 10.73Z" /></svg>
